X: 370
T:Qui belles amours
N: Derived from Jos2829-Qui_belles_amours.krn
C: Josquin des Prez
%%abc-version 2.0
%%abcx-abcm2ps-target-version 5.9.1 (29 Sep 2008)
%%abc-creator hum2abc beta
%%abcx-conversion-date 2019/02/12 16:15:54
%%abc-edited-by Jesse Rodin
%%abc-edited-by Will Watson 18/08/2011
%%abcx-initial-encoding-date 2011/08/18/
%%humdrum-veritas 3699220030
%%humdrum-veritas-data 1975735335
%%linebreak <none>
%%barnumbers 0
L: 1/4
M: 2/1
Q: 1/2=120
%%staves [1 2 3 4]
V: 1 clef=treble
V: 2 clef=treble-8
V: 3 clef=treble-8
V: 4 clef=bass
K: F
[V:1] z8 | 
[V:2] z8 | 
[V:3] z8 | 
[V:4] G,4B,4- | 
[V:1] z8 | 
[V:2] z8 | 
[V:3] z8 | 
[V:4] B,2B,2B,2B,2 | 
[V:1] z8 | 
[V:2] z4d4 | 
[V:3] z8 | 
[V:4] A,2B,4A,G, | 
[V:1] z8 | 
[V:2] f3ff2f2 | 
[V:3] z8 | 
[V:4] F,6E,D, | 
[V:1] z8 | 
[V:2] e2f4ed | 
[V:3] z8 | 
[V:4] C,2B,,2F,4- | 
[V:1] z4G4 | 
[V:2] c8 | 
[V:3] z8 | 
[V:4] F,2E,D,C,4 | 
[V:1] B3BB2B2 | 
[V:2] z4d4 | 
[V:3] z8 | 
[V:4] B,,2B,4A,G, | 
[V:1] A2B4AG | 
[V:2] fedcB2c2 | 
[V:3] z4G4 | 
[V:4] F,2G,4F,E, | 
[V:1] F4z2G2 | 
[V:2] d4z2d2 | 
[V:3] B3BB2B2 | 
[V:4] D,2B,,4A,,G,, | 
[V:1] A2F2B4 | 
[V:2] f4z2d2 | 
[V:3] A2B4AG | 
[V:4] D,4z2G,,2 | 
[V:1] z2A2B4 | 
[V:2] f4z2d2 | 
[V:3] F4z2G2 | 
[V:4] D,4z4 | 
[V:1] z4z2G2 | 
[V:2] f3edcd2 | 
[V:3] A2F2B4 | 
[V:4] D,4G,4 | 
[V:1] B4z4 | 
[V:2] Bcdef4 | 
[V:3] z2G2A2F2 | 
[V:4] z4D,4 | 
[V:1] z2G2A2B2 | 
[V:2] z2d2f2d2 | 
[V:3] B4z2G2 | 
[V:4] G,4D,2G,2 | 
[V:1] A2G2c4- | 
[V:2] f2d2f2e2 | 
[V:3] A2B2A2G2 | 
[V:4] F,2G,2F,2G,2 | 
[V:1] c2BAB2G2 | 
[V:2] fedcB4 | 
[V:3] A4G4 | 
[V:4] z2F,2G,2E,2 | 
[V:1] A2B2A2G2 | 
[V:2] z2d2f2e2 | 
[V:3] z2G2A2B2 | 
[V:4] F,2G,2F,2G,2 | 
[V:1] F2G4^F2 | 
[V:2] d2c2d4- | 
[V:3] A2G2A4 | 
[V:4] D,2_E,2D,4 | 
[V:1] G8 | 
[V:2] d2cB_e2d2- | 
[V:3] G8- | 
[V:4] z2G,,2C,2B,,2- | 
[V:1] z4G4 | 
[V:2] d2cB_e2d2- | 
[V:3] G8 | 
[V:4] B,,2A,,G,,C,2B,,2 | 
[V:1] B3BB2B2 | 
[V:2] dcBAG2B2 | 
[V:3] z8 | 
[V:4] G,,4G,4 | 
[V:1] A2F2G3F | 
[V:2] c2d4c2 | 
[V:3] z4G4 | 
[V:4] F,2D,2_E,3D, | 
[V:1] D4z2D2 | 
[V:2] f3edcd2- | 
[V:3] B3BB2B2 | 
[V:4] B,,6A,,G,, | 
[V:1] F3GABc2 | 
[V:2] d4c3B | 
[V:3] AGFEF4 | 
[V:4] D,4z4 | 
[V:1] B2G2A4 | 
[V:2] G2g4f2 | 
[V:3] z8 | 
[V:4] z8 | 
[V:1] G4z4 | 
[V:2] gfedcBA2- | 
[V:3] z2G2A2c2 | 
[V:4] z8 | 
[V:1] z8 | 
[V:2] AGg4^f2 | 
[V:3] B2G2A4 | 
[V:4] z4D,4 | 
[V:1] z4D4 | 
[V:2] g4G4 | 
[V:3] G8 | 
[V:4] G,3F,G,A,B,2- | 
[V:1] G3GG2G2 | 
[V:2] B4c4 | 
[V:3] z8 | 
[V:4] B,A,G,F,E,4 | 
[V:1] F3ED4 | 
[V:2] d2f4_ed | 
[V:3] z4D4 | 
[V:4] D,6C,B,, | 
[V:1] z8 | 
[V:2] _e2d4cB | 
[V:3] G3GG2G2 | 
[V:4] C,2B,,2G,,A,,B,,C, | 
[V:1] z4A4 | 
[V:2] A3GA4 | 
[V:3] F3ED4 | 
[V:4] D,C,D,E,F,G,A,F, | 
[V:1] B6A2 | 
[V:2] GABcdef2 | 
[V:3] z8 | 
[V:4] G,4z4 | 
[V:1] G2F2E4 | 
[V:2] e2d4^c2 | 
[V:3] z4A4 | 
[V:4] z8 | 
[V:1] D8 | 
[V:2] d2Bcdef2 | 
[V:3] B6A2 | 
[V:4] z8 | 
[V:1] z8 | 
[V:2] e2d4^c2 | 
[V:3] G2F2E4 | 
[V:4] z4G,4 | 
[V:1] z8 | 
[V:2] d2d6 | 
[V:3] D8- | 
[V:4] B,3B,B,2B,2 | 
[V:1] z8 | 
[V:2] z4d4 | 
[V:3] D8 | 
[V:4] A,2B,4A,G, | 
[V:1] z8 | 
[V:2] f3ff2f2 | 
[V:3] z8 | 
[V:4] F,6E,D, | 
[V:1] z8 | 
[V:2] e2f4ed | 
[V:3] z8 | 
[V:4] C,2B,,2F,4- | 
[V:1] z4G4 | 
[V:2] c8 | 
[V:3] z8 | 
[V:4] F,2E,D,C,4 | 
[V:1] B3BB2B2 | 
[V:2] z4d4 | 
[V:3] z8 | 
[V:4] B,,2B,4A,G, | 
[V:1] A2B4AG | 
[V:2] fedcB2c2 | 
[V:3] z4G4 | 
[V:4] F,2G,4F,E, | 
[V:1] F4z2G2 | 
[V:2] d4z2d2 | 
[V:3] B3BB2B2 | 
[V:4] D,2B,,4A,,G,, | 
[V:1] A2F2B4 | 
[V:2] f4z2d2 | 
[V:3] A2B4AG | 
[V:4] D,4z2G,,2 | 
[V:1] z2A2B4 | 
[V:2] f4z2d2 | 
[V:3] F4z2G2 | 
[V:4] D,4z4 | 
[V:1] z4z2G2 | 
[V:2] f3edcd2 | 
[V:3] A2F2B4 | 
[V:4] D,4G,4 | 
[V:1] B4z4 | 
[V:2] Bcdef4 | 
[V:3] z2G2A2F2 | 
[V:4] z4D,4 | 
[V:1] z2G2A2B2 | 
[V:2] z2d2f2d2 | 
[V:3] B4z2G2 | 
[V:4] G,4D,2G,2 | 
[V:1] A2G2c4- | 
[V:2] f2d2f2e2 | 
[V:3] A2B2A2G2 | 
[V:4] F,2G,2F,2G,2 | 
[V:1] c2BAB2G2 | 
[V:2] fedcB4 | 
[V:3] A4G4 | 
[V:4] z2F,2G,2E,2 | 
[V:1] A2B2A2G2 | 
[V:2] z2d2f2e2 | 
[V:3] z2G2A2B2 | 
[V:4] F,2G,2F,2G,2 | 
[V:1] F2G4^F2 | 
[V:2] d2c2d4- | 
[V:3] A2G2A4 | 
[V:4] D,2_E,2D,4 | 
[V:1] G8- | 
[V:2] d2cB_e2d2- | 
[V:3] G8- | 
[V:4] z2G,,2C,2B,,2- | 
[V:1] G8- | 
[V:2] d2cB_e2d2 | 
[V:3] G8- | 
[V:4] B,,2A,,G,,C,2B,,2 | 
[V:1] G8 |]  
[V:2] d8 |]  
[V:3] G8 |]  
[V:4] G,,8 |]  



